assets/awspanorama/original.svg

<svg height="64" viewBox="0 0 64 64" width="64" xmlns="http://www.w3.org/2000/svg"><g fill="none" fill-rule="evenodd"><path d="m0 0h64v64h-64z" fill="#01a88d"/><path d="m10 10c1.103 0 2-.897 2-2s-.897-2-2-2-2 .897-2 2 .897 2 2 2m8 10v18h-2v-17.246l-6.274-1.793a1 1 0 0 1 -.726-.961v-6.142c-1.721-.447-3-2-3-3.858 0-2.206 1.794-4 4-4s4 1.794 4 4c0 1.858-1.279 3.411-3 3.858v5.388l6.274 1.793c.43.122.726.515.726.961m6-16c0-1.103-.897-2-2-2s-2 .897-2 2 .897 2 2 2 2-.897 2-2m-1 3.858v26.142h-2v-26.142c-1.721-.447-3-2-3-3.858 0-2.206 1.794-4 4-4s4 1.794 4 4c0 1.858-1.279 3.411-3 3.858m14 8.142c0-1.103-.897-2-2-2s-2 .897-2 2 .897 2 2 2 2-.897 2-2m2 0c0 2.206-1.794 4-4 4-1.876 0-3.443-1.303-3.873-3.048h-3.127v21.048h-2v-22.048c0-.552.447-.952 1-.952h4c.464-1.695 2.159-3 4-3 2.206 0 4 1.794 4 4m-6 22.977h3v-1.954h-3zm4 0h3v-1.954h-3zm2.215 5.023h-34.43a4.786 4.786 0 0 1 -4.785-4.785v-1.43a4.786 4.786 0 0 1 4.785-4.785h9.215v2h-9.535a2.465 2.465 0 0 0 -2.465 2.465v2.07a2.465 2.465 0 0 0 2.465 2.465h35.07a2.465 2.465 0 0 0 2.465-2.465v-2.07a2.465 2.465 0 0 0 -2.465-2.465h-9.535v-2h9.215a4.786 4.786 0 0 1 4.785 4.785v1.43a4.786 4.786 0 0 1 -4.785 4.785" fill="#fff" transform="translate(10 10)"/></g></svg>

<svg xmlns="http://www.w3.org/2000/svg" width="64" height="64" viewBox="0 0 64 64"><title>Icon-Architecture/48/Arch_AWS-Panorama_48</title><g id="Icon-Architecture/48/Arch_AWS-Panorama_48" fill="none" fill-rule="evenodd" stroke="none" stroke-width="1"><g id="Icon-Architecture-BG/48/Machine-Learning" fill="#01a88d"><path id="Rectangle" d="M0 0h64v64H0z"/></g><g id="Icon-Service/48/AWS-Panorama_48" fill="#fff" transform="translate(10 10)"><path id="Fill-1" d="M10 10c1.103 0 2-.897 2-2s-.897-2-2-2-2 .897-2 2 .897 2 2 2m8 10v18h-2V20.754l-6.274-1.793A1 1 0 0 1 9 18v-6.142c-1.721-.447-3-2-3-3.858 0-2.206 1.794-4 4-4s4 1.794 4 4c0 1.858-1.279 3.411-3 3.858v5.388l6.274 1.793c.43.122.726.515.726.961m6-16c0-1.103-.897-2-2-2s-2 .897-2 2 .897 2 2 2 2-.897 2-2m-1 3.858V34h-2V7.858c-1.721-.447-3-2-3-3.858 0-2.206 1.794-4 4-4s4 1.794 4 4c0 1.858-1.279 3.411-3 3.858M37 16c0-1.103-.897-2-2-2s-2 .897-2 2 .897 2 2 2 2-.897 2-2m2 0c0 2.206-1.794 4-4 4-1.876 0-3.443-1.303-3.873-3.048H28V38h-2V15.952c0-.552.447-.952 1-.952h4c.464-1.695 2.159-3 4-3 2.206 0 4 1.794 4 4m-6 22.977h3v-1.954h-3zm4 0h3v-1.954h-3zM39.215 44H4.785A4.786 4.786 0 0 1 0 39.215v-1.43A4.786 4.786 0 0 1 4.785 33H14v2H4.465A2.465 2.465 0 0 0 2 37.465v2.07A2.465 2.465 0 0 0 4.465 42h35.07A2.465 2.465 0 0 0 42 39.535v-2.07A2.465 2.465 0 0 0 39.535 35H30v-2h9.215A4.786 4.786 0 0 1 44 37.785v1.43A4.786 4.786 0 0 1 39.215 44"/></g></g></svg>
